X: 25008
T: Maid On The Green, The
R: jig
M: 6/8
K: Gmajor
|:~g3 egd|B2e dBA|BGG dBG|BAG AB/c/d|
~g3 egd|B2e dBA|BGG dBA|AGF GBd:|
|:~g3 afd|~g3 afd|~g3 eag|fd^c dga|
bag agf|~g3 egd|B2e dBA|AGF GBd:|

